documentation/public/assets/images/inline-messages.svg

<svg width="100" height="20" viewBox="0 0 100 20" fill="none" xmlns="http://www.w3.org/2000/svg">
<path d="M7.66988 12.2899C7.31988 12.2899 7.04988 12.0099 7.04988 11.6699V9.66988C7.04988 9.31988 7.32988 9.04988 7.66988 9.04988C8.00988 9.04988 8.28988 9.32988 8.28988 9.66988V11.6699C8.28988 12.0199 8.00988 12.2899 7.66988 12.2899Z" fill="#0F67F5"/>
<path d="M7.66988 8.28988C7.57988 8.28988 7.49988 8.26988 7.42988 8.23988C7.34988 8.20988 7.27988 8.16988 7.21988 8.10988C7.16988 8.04988 7.11988 7.97988 7.08988 7.90988C7.05988 7.82988 7.03988 7.74988 7.03988 7.66988C7.03988 7.58988 7.05988 7.49988 7.08988 7.42988C7.11988 7.34988 7.16988 7.27988 7.21988 7.22988C7.27988 7.16988 7.34988 7.11988 7.42988 7.08988C7.57988 7.02988 7.74988 7.02988 7.90988 7.08988C7.97988 7.11988 8.04988 7.16988 8.10988 7.22988C8.16988 7.27988 8.20988 7.34988 8.23988 7.42988C8.27988 7.49988 8.28988 7.58988 8.28988 7.66988C8.28988 7.82988 8.22988 7.98988 8.10988 8.10988C7.98988 8.21988 7.82988 8.28988 7.66988 8.28988Z" fill="#0F67F5"/>
<path d="M7.66988 16.9599C3.64988 16.9599 0.379883 13.6899 0.379883 9.66988C0.379883 5.64988 3.64988 2.37988 7.66988 2.37988C11.6899 2.37988 14.9599 5.64988 14.9599 9.66988C14.9599 13.6899 11.6899 16.9599 7.66988 16.9599ZM7.66988 3.61988C4.32988 3.61988 1.61988 6.33988 1.61988 9.66988C1.61988 12.9999 4.32988 15.7099 7.65988 15.7099C10.9899 15.7099 13.6999 12.9999 13.6999 9.66988C13.6999 6.33988 10.9999 3.61988 7.66988 3.61988Z" fill="#0F67F5"/>
<path d="M24.9205 14V7.45455H25.9261V14H24.9205ZM25.4318 6.36364C25.2358 6.36364 25.0668 6.29688 24.9247 6.16335C24.7855 6.02983 24.7159 5.86932 24.7159 5.68182C24.7159 5.49432 24.7855 5.33381 24.9247 5.20028C25.0668 5.06676 25.2358 5 25.4318 5C25.6278 5 25.7955 5.06676 25.9347 5.20028C26.0767 5.33381 26.1477 5.49432 26.1477 5.68182C26.1477 5.86932 26.0767 6.02983 25.9347 6.16335C25.7955 6.29688 25.6278 6.36364 25.4318 6.36364ZM28.7738 10.0625V14H27.7681V7.45455H28.7397V8.47727H28.8249C28.9783 8.14489 29.2113 7.87784 29.5238 7.67614C29.8363 7.47159 30.2397 7.36932 30.734 7.36932C31.1772 7.36932 31.565 7.46023 31.8974 7.64205C32.2298 7.82102 32.4883 8.09375 32.6729 8.46023C32.8576 8.82386 32.9499 9.28409 32.9499 9.84091V14H31.9442V9.90909C31.9442 9.39489 31.8107 8.99432 31.5437 8.70739C31.2766 8.41761 30.9102 8.27273 30.4442 8.27273C30.1232 8.27273 29.8363 8.34233 29.5835 8.48153C29.3335 8.62074 29.136 8.82386 28.9911 9.09091C28.8462 9.35795 28.7738 9.68182 28.7738 10.0625ZM37.7024 7.45455V8.30682H34.174V7.45455H37.7024ZM35.2308 14V6.55114C35.2308 6.17614 35.3189 5.86364 35.495 5.61364C35.6712 5.36364 35.8999 5.17614 36.1811 5.05114C36.4624 4.92614 36.7592 4.86364 37.0717 4.86364C37.3189 4.86364 37.5206 4.88352 37.6768 4.9233C37.8331 4.96307 37.9496 5 38.0263 5.03409L37.7365 5.90341C37.6854 5.88636 37.6143 5.86506 37.5234 5.83949C37.4354 5.81392 37.3189 5.80114 37.174 5.80114C36.8416 5.80114 36.6016 5.88494 36.4538 6.05256C36.3089 6.22017 36.2365 6.46591 36.2365 6.78977V14H35.2308ZM41.5014 14.1364C40.9105 14.1364 40.392 13.9957 39.946 13.7145C39.5028 13.4332 39.1562 13.0398 38.9062 12.5341C38.6591 12.0284 38.5355 11.4375 38.5355 10.7614C38.5355 10.0795 38.6591 9.48437 38.9062 8.97585C39.1562 8.46733 39.5028 8.07244 39.946 7.79119C40.392 7.50994 40.9105 7.36932 41.5014 7.36932C42.0923 7.36932 42.6094 7.50994 43.0526 7.79119C43.4986 8.07244 43.8452 8.46733 44.0923 8.97585C44.3423 9.48437 44.4673 10.0795 44.4673 10.7614C44.4673 11.4375 44.3423 12.0284 44.0923 12.5341C43.8452 13.0398 43.4986 13.4332 43.0526 13.7145C42.6094 13.9957 42.0923 14.1364 41.5014 14.1364ZM41.5014 13.233C41.9503 13.233 42.3196 13.1179 42.6094 12.8878C42.8991 12.6577 43.1136 12.3551 43.2528 11.9801C43.392 11.6051 43.4616 11.1989 43.4616 10.7614C43.4616 10.3239 43.392 9.91619 43.2528 9.53835C43.1136 9.16051 42.8991 8.85511 42.6094 8.62216C42.3196 8.3892 41.9503 8.27273 41.5014 8.27273C41.0526 8.27273 40.6832 8.3892 40.3935 8.62216C40.1037 8.85511 39.8892 9.16051 39.75 9.53835C39.6108 9.91619 39.5412 10.3239 39.5412 10.7614C39.5412 11.1989 39.6108 11.6051 39.75 11.9801C39.8892 12.3551 40.1037 12.6577 40.3935 12.8878C40.6832 13.1179 41.0526 13.233 41.5014 13.233ZM49.3775 14V7.45455H50.3491V8.47727H50.4343C50.5707 8.12784 50.7908 7.85653 51.0948 7.66335C51.3988 7.46733 51.7638 7.36932 52.19 7.36932C52.6218 7.36932 52.9812 7.46733 53.2681 7.66335C53.5579 7.85653 53.7837 8.12784 53.9457 8.47727H54.0138C54.1815 8.1392 54.4329 7.87074 54.7681 7.67188C55.1033 7.47017 55.5053 7.36932 55.9741 7.36932C56.5593 7.36932 57.038 7.55256 57.4102 7.91903C57.7823 8.28267 57.9684 8.84943 57.9684 9.61932V14H56.9627V9.61932C56.9627 9.13636 56.8306 8.79119 56.5664 8.58381C56.3022 8.37642 55.9911 8.27273 55.6332 8.27273C55.1729 8.27273 54.8164 8.41193 54.5636 8.69034C54.3107 8.96591 54.1843 9.31534 54.1843 9.73864V14H53.1616V9.51705C53.1616 9.14489 53.0408 8.84517 52.7994 8.6179C52.5579 8.38778 52.2468 8.27273 51.8661 8.27273C51.6048 8.27273 51.3604 8.34233 51.1332 8.48153C50.9087 8.62074 50.7269 8.81392 50.5877 9.06108C50.4513 9.3054 50.3832 9.58807 50.3832 9.90909V14H49.3775ZM62.5515 14.1364C61.9208 14.1364 61.3768 13.9972 60.9194 13.7188C60.4648 13.4375 60.114 13.0455 59.8668 12.5426C59.6225 12.0369 59.5004 11.4489 59.5004 10.7784C59.5004 10.108 59.6225 9.51705 59.8668 9.00568C60.114 8.49148 60.4577 8.09091 60.8981 7.80398C61.3413 7.5142 61.8583 7.36932 62.4492 7.36932C62.7901 7.36932 63.1268 7.42614 63.4592 7.53977C63.7915 7.65341 64.0941 7.83807 64.3668 8.09375C64.6396 8.34659 64.8569 8.68182 65.0188 9.09943C65.1808 9.51705 65.2617 10.0312 65.2617 10.642V11.0682H60.2163V10.1989H64.239C64.239 9.82955 64.1651 9.5 64.0174 9.21023C63.8725 8.92045 63.6651 8.69176 63.3952 8.52415C63.1282 8.35653 62.8129 8.27273 62.4492 8.27273C62.0487 8.27273 61.7021 8.37216 61.4094 8.57102C61.1197 8.76705 60.8967 9.02273 60.7404 9.33807C60.5842 9.65341 60.506 9.99148 60.506 10.3523V10.9318C60.506 11.4261 60.5913 11.8452 60.7617 12.1889C60.935 12.5298 61.1751 12.7898 61.4819 12.9688C61.7887 13.1449 62.1452 13.233 62.5515 13.233C62.8157 13.233 63.0543 13.196 63.2674 13.1222C63.4833 13.0455 63.6694 12.9318 63.8256 12.7812C63.9819 12.6278 64.1026 12.4375 64.1879 12.2102L65.1594 12.483C65.0572 12.8125 64.8853 13.1023 64.6438 13.3523C64.4023 13.5994 64.104 13.7926 63.7489 13.9318C63.3938 14.0682 62.9947 14.1364 62.5515 14.1364ZM71.4279 8.92045L70.5245 9.17614C70.4677 9.02557 70.3839 8.87926 70.2731 8.73722C70.1651 8.59233 70.0174 8.47301 69.8299 8.37926C69.6424 8.28551 69.4023 8.23864 69.1097 8.23864C68.7092 8.23864 68.3754 8.33097 68.1083 8.51562C67.8441 8.69744 67.712 8.92898 67.712 9.21023C67.712 9.46023 67.8029 9.65767 67.9847 9.80256C68.1665 9.94744 68.4506 10.0682 68.837 10.1648L69.8086 10.4034C70.3938 10.5455 70.8299 10.7628 71.1168 11.0554C71.4038 11.3452 71.5472 11.7187 71.5472 12.1761C71.5472 12.5511 71.4393 12.8864 71.2234 13.1818C71.0103 13.4773 70.712 13.7102 70.3285 13.8807C69.945 14.0511 69.4989 14.1364 68.9904 14.1364C68.3228 14.1364 67.7702 13.9915 67.3327 13.7017C66.8952 13.4119 66.6183 12.9886 66.5018 12.4318L67.4563 12.1932C67.5472 12.5455 67.7191 12.8097 67.9719 12.9858C68.2276 13.1619 68.5614 13.25 68.9734 13.25C69.4421 13.25 69.8143 13.1506 70.0898 12.9517C70.3683 12.75 70.5075 12.5085 70.5075 12.2273C70.5075 12 70.4279 11.8097 70.2688 11.6562C70.1097 11.5 69.8654 11.3835 69.5359 11.3068L68.445 11.0511C67.8455 10.9091 67.4052 10.6889 67.1239 10.3906C66.8455 10.0895 66.7063 9.71307 66.7063 9.26136C66.7063 8.89205 66.81 8.56534 67.0174 8.28125C67.2276 7.99716 67.5131 7.77415 67.8739 7.61222C68.2376 7.45028 68.6495 7.36932 69.1097 7.36932C69.7575 7.36932 70.266 7.51136 70.6353 7.79545C71.0075 8.07955 71.2717 8.45455 71.4279 8.92045ZM77.6974 8.92045L76.794 9.17614C76.7372 9.02557 76.6534 8.87926 76.5426 8.73722C76.4347 8.59233 76.2869 8.47301 76.0994 8.37926C75.9119 8.28551 75.6719 8.23864 75.3793 8.23864C74.9787 8.23864 74.6449 8.33097 74.3778 8.51562C74.1136 8.69744 73.9815 8.92898 73.9815 9.21023C73.9815 9.46023 74.0724 9.65767 74.2543 9.80256C74.4361 9.94744 74.7202 10.0682 75.1065 10.1648L76.0781 10.4034C76.6634 10.5455 77.0994 10.7628 77.3864 11.0554C77.6733 11.3452 77.8168 11.7187 77.8168 12.1761C77.8168 12.5511 77.7088 12.8864 77.4929 13.1818C77.2798 13.4773 76.9815 13.7102 76.598 13.8807C76.2145 14.0511 75.7685 14.1364 75.2599 14.1364C74.5923 14.1364 74.0398 13.9915 73.6023 13.7017C73.1648 13.4119 72.8878 12.9886 72.7713 12.4318L73.7259 12.1932C73.8168 12.5455 73.9886 12.8097 74.2415 12.9858C74.4972 13.1619 74.831 13.25 75.2429 13.25C75.7116 13.25 76.0838 13.1506 76.3594 12.9517C76.6378 12.75 76.777 12.5085 76.777 12.2273C76.777 12 76.6974 11.8097 76.5384 11.6562C76.3793 11.5 76.1349 11.3835 75.8054 11.3068L74.7145 11.0511C74.1151 10.9091 73.6747 10.6889 73.3935 10.3906C73.1151 10.0895 72.9759 9.71307 72.9759 9.26136C72.9759 8.89205 73.0795 8.56534 73.2869 8.28125C73.4972 7.99716 73.7827 7.77415 74.1435 7.61222C74.5071 7.45028 74.919 7.36932 75.3793 7.36932C76.027 7.36932 76.5355 7.51136 76.9048 7.79545C77.277 8.07955 77.5412 8.45455 77.6974 8.92045ZM81.2567 14.1534C80.842 14.1534 80.4656 14.0753 80.1275 13.919C79.7894 13.7599 79.521 13.5312 79.3221 13.233C79.1232 12.9318 79.0238 12.5682 79.0238 12.142C79.0238 11.767 79.0977 11.4631 79.2454 11.2301C79.3931 10.9943 79.5906 10.8097 79.8377 10.6761C80.0849 10.5426 80.3576 10.4432 80.6559 10.3778C80.957 10.3097 81.2596 10.2557 81.5636 10.2159C81.9613 10.1648 82.2837 10.1264 82.5309 10.1009C82.7809 10.0724 82.9627 10.0256 83.0763 9.96023C83.1928 9.89489 83.2511 9.78125 83.2511 9.61932V9.58523C83.2511 9.16477 83.136 8.83807 82.9059 8.60511C82.6786 8.37216 82.3335 8.25568 81.8704 8.25568C81.3903 8.25568 81.0138 8.3608 80.7411 8.57102C80.4684 8.78125 80.2766 9.00568 80.1658 9.24432L79.2113 8.90341C79.3817 8.50568 79.609 8.19602 79.8931 7.97443C80.18 7.75 80.4925 7.59375 80.8306 7.50568C81.1715 7.41477 81.5067 7.36932 81.8363 7.36932C82.0465 7.36932 82.288 7.39489 82.5607 7.44602C82.8363 7.49432 83.1019 7.59517 83.3576 7.74858C83.6161 7.90199 83.8306 8.13352 84.0011 8.44318C84.1715 8.75284 84.2567 9.16761 84.2567 9.6875V14H83.2511V13.1136H83.1999C83.1317 13.2557 83.0181 13.4077 82.859 13.5696C82.6999 13.7315 82.4883 13.8693 82.2241 13.983C81.9599 14.0966 81.6374 14.1534 81.2567 14.1534ZM81.4102 13.25C81.8079 13.25 82.1431 13.1719 82.4158 13.0156C82.6914 12.8594 82.8988 12.6577 83.038 12.4105C83.18 12.1634 83.2511 11.9034 83.2511 11.6307V10.7102C83.2085 10.7614 83.1147 10.8082 82.9698 10.8509C82.8278 10.8906 82.663 10.9261 82.4755 10.9574C82.2908 10.9858 82.1104 11.0114 81.9343 11.0341C81.761 11.054 81.6204 11.071 81.5124 11.0852C81.2511 11.1193 81.0067 11.1747 80.7795 11.2514C80.555 11.3253 80.3732 11.4375 80.234 11.5881C80.0977 11.7358 80.0295 11.9375 80.0295 12.1932C80.0295 12.5426 80.1587 12.8068 80.4173 12.9858C80.6786 13.1619 81.0096 13.25 81.4102 13.25ZM88.7344 16.5909C88.2486 16.5909 87.831 16.5284 87.4815 16.4034C87.1321 16.2812 86.8409 16.1193 86.608 15.9176C86.3778 15.7188 86.1946 15.5057 86.0582 15.2784L86.8594 14.7159C86.9503 14.8352 87.0653 14.9716 87.2045 15.125C87.3438 15.2812 87.5341 15.4162 87.7756 15.5298C88.0199 15.6463 88.3395 15.7045 88.7344 15.7045C89.2628 15.7045 89.6989 15.5767 90.0426 15.321C90.3864 15.0653 90.5582 14.6648 90.5582 14.1193V12.7898H90.473C90.3991 12.9091 90.294 13.0568 90.1577 13.233C90.0241 13.4062 89.831 13.5611 89.5781 13.6974C89.3281 13.831 88.9901 13.8977 88.5639 13.8977C88.0355 13.8977 87.5611 13.7727 87.1406 13.5227C86.723 13.2727 86.392 12.9091 86.1477 12.4318C85.9063 11.9545 85.7855 11.375 85.7855 10.6932C85.7855 10.0227 85.9034 9.43892 86.1392 8.94176C86.375 8.44176 86.7031 8.0554 87.1236 7.78267C87.544 7.5071 88.0298 7.36932 88.581 7.36932C89.0071 7.36932 89.3452 7.44034 89.5952 7.58239C89.848 7.72159 90.0412 7.88068 90.1747 8.05966C90.3111 8.2358 90.4162 8.38068 90.4901 8.49432H90.5923V7.45455H91.5639V14.1875C91.5639 14.75 91.4361 15.2074 91.1804 15.5597C90.9276 15.9148 90.5866 16.1747 90.1577 16.3395C89.7315 16.5071 89.2571 16.5909 88.7344 16.5909ZM88.7003 12.9943C89.1037 12.9943 89.4446 12.902 89.723 12.7173C90.0014 12.5327 90.2131 12.267 90.358 11.9205C90.5028 11.5739 90.5753 11.1591 90.5753 10.6761C90.5753 10.2045 90.5043 9.78835 90.3622 9.42756C90.2202 9.06676 90.0099 8.78409 89.7315 8.57955C89.4531 8.375 89.1094 8.27273 88.7003 8.27273C88.2741 8.27273 87.919 8.38068 87.6349 8.59659C87.3537 8.8125 87.142 9.10227 87 9.46591C86.8608 9.82955 86.7912 10.233 86.7912 10.6761C86.7912 11.1307 86.8622 11.5327 87.0043 11.8821C87.1491 12.2287 87.3622 12.5014 87.6435 12.7003C87.9276 12.8963 88.2798 12.9943 88.7003 12.9943ZM96.1491 14.1364C95.5185 14.1364 94.9744 13.9972 94.517 13.7188C94.0625 13.4375 93.7116 13.0455 93.4645 12.5426C93.2202 12.0369 93.098 11.4489 93.098 10.7784C93.098 10.108 93.2202 9.51705 93.4645 9.00568C93.7116 8.49148 94.0554 8.09091 94.4957 7.80398C94.9389 7.5142 95.456 7.36932 96.0469 7.36932C96.3878 7.36932 96.7244 7.42614 97.0568 7.53977C97.3892 7.65341 97.6918 7.83807 97.9645 8.09375C98.2372 8.34659 98.4545 8.68182 98.6165 9.09943C98.7784 9.51705 98.8594 10.0312 98.8594 10.642V11.0682H93.8139V10.1989H97.8366C97.8366 9.82955 97.7628 9.5 97.6151 9.21023C97.4702 8.92045 97.2628 8.69176 96.9929 8.52415C96.7259 8.35653 96.4105 8.27273 96.0469 8.27273C95.6463 8.27273 95.2997 8.37216 95.0071 8.57102C94.7173 8.76705 94.4943 9.02273 94.3381 9.33807C94.1818 9.65341 94.1037 9.99148 94.1037 10.3523V10.9318C94.1037 11.4261 94.1889 11.8452 94.3594 12.1889C94.5327 12.5298 94.7727 12.7898 95.0795 12.9688C95.3864 13.1449 95.7429 13.233 96.1491 13.233C96.4134 13.233 96.652 13.196 96.8651 13.1222C97.081 13.0455 97.267 12.9318 97.4233 12.7812C97.5795 12.6278 97.7003 12.4375 97.7855 12.2102L98.7571 12.483C98.6548 12.8125 98.483 13.1023 98.2415 13.3523C98 13.5994 97.7017 13.7926 97.3466 13.9318C96.9915 14.0682 96.5923 14.1364 96.1491 14.1364Z" fill="#0F67F5"/>
</svg>

<svg width="100" height="20" fill="none" xmlns="http://www.w3.org/2000/svg"><path d="M7.67 12.29a.62.62 0 0 1-.62-.62v-2c0-.35.28-.62.62-.62.34 0 .62.28.62.62v2c0 .35-.28.62-.62.62Zm0-4a.6.6 0 0 1-.24-.05.57.57 0 0 1-.21-.13.86.86 0 0 1-.13-.2.69.69 0 0 1-.05-.24.64.64 0 0 1 .39-.58.66.66 0 0 1 .48 0c.07.03.14.08.2.14.06.05.1.12.13.2a.5.5 0 0 1 .05.24c0 .16-.06.32-.18.44a.67.67 0 0 1-.44.18Z" fill="#0F67F5"/><path d="M7.67 16.96a7.3 7.3 0 1 1 .02-14.6 7.3 7.3 0 0 1-.02 14.6Zm0-13.34a6.05 6.05 0 1 0 0 12.09 6.05 6.05 0 0 0 0-12.09ZM24.92 14V7.45h1V14h-1Zm.51-7.64a.72.72 0 0 1-.5-.2.64.64 0 0 1-.21-.48c0-.19.07-.35.2-.48.15-.13.32-.2.51-.2.2 0 .37.07.5.2.15.13.22.3.22.48a.6.6 0 0 1-.22.48.7.7 0 0 1-.5.2Zm3.34 3.7V14h-1V7.45h.97v1.03h.08c.16-.34.4-.6.7-.8.32-.2.72-.31 1.21-.31.45 0 .84.09 1.17.27.33.18.59.45.77.82.19.36.28.82.28 1.38V14h-1V9.9c0-.5-.14-.9-.4-1.2a1.42 1.42 0 0 0-1.1-.43c-.33 0-.61.07-.87.21a1.5 1.5 0 0 0-.59.61c-.14.27-.22.6-.22.97Zm8.93-2.6v.85h-3.53v-.86h3.53ZM35.23 14V6.55a1.58 1.58 0 0 1 .95-1.5 2.52 2.52 0 0 1 1.85-.02l-.3.87a4.95 4.95 0 0 0-.2-.06 1.3 1.3 0 0 0-.36-.04c-.33 0-.57.08-.72.25-.14.17-.21.42-.21.74V14h-1Zm6.27.14c-.59 0-1.1-.14-1.55-.43a2.87 2.87 0 0 1-1.04-1.18 4 4 0 0 1-.37-1.77c0-.68.12-1.28.37-1.78.25-.51.6-.9 1.04-1.19.44-.28.96-.42 1.55-.42a2.75 2.75 0 0 1 2.59 1.61 4 4 0 0 1 .38 1.78c0 .68-.13 1.27-.38 1.77a2.79 2.79 0 0 1-2.59 1.61Zm0-.9c.45 0 .82-.12 1.1-.35.3-.23.51-.53.65-.91a3.72 3.72 0 0 0 .01-2.44 2.06 2.06 0 0 0-.65-.92 1.71 1.71 0 0 0-1.1-.35c-.46 0-.83.12-1.12.35-.29.24-.5.54-.64.92s-.2.78-.2 1.22c0 .44.06.85.2 1.22.14.38.35.68.64.9.3.24.66.35 1.11.35Zm7.88.76V7.45h.97v1.03h.08c.14-.35.36-.62.66-.82.3-.2.67-.3 1.1-.3.43 0 .8.1 1.08.3.29.2.51.47.68.82H54c.17-.34.42-.6.76-.8.33-.21.74-.31 1.2-.31.59 0 1.07.18 1.44.55.37.36.56.93.56 1.7V14h-1V9.62c0-.48-.14-.83-.4-1.04-.27-.2-.58-.3-.94-.3-.46 0-.81.13-1.07.41-.25.28-.38.63-.38 1.05V14h-1.02V9.52c0-.38-.12-.67-.36-.9a1.3 1.3 0 0 0-.93-.35c-.27 0-.51.07-.74.21-.22.14-.4.33-.54.58-.14.25-.2.53-.2.85V14h-1.01Zm13.17.14a2.8 2.8 0 0 1-2.68-1.6c-.25-.5-.37-1.1-.37-1.76 0-.67.12-1.26.37-1.77a2.77 2.77 0 0 1 2.58-1.64c.34 0 .68.06 1 .17a2.5 2.5 0 0 1 1.57 1.56c.16.42.24.93.24 1.54v.43h-5.04v-.87h4.02c0-.37-.07-.7-.22-.99a1.67 1.67 0 0 0-1.57-.94c-.4 0-.75.1-1.04.3a2 2 0 0 0-.67.77c-.16.31-.23.65-.23 1.01v.58c0 .5.08.92.25 1.26.18.34.42.6.72.78.3.17.67.26 1.07.26.27 0 .5-.03.72-.1.21-.08.4-.2.56-.35.15-.15.27-.34.36-.57l.97.27c-.1.33-.27.62-.52.87-.24.25-.54.44-.9.58-.35.14-.75.2-1.19.2Zm8.88-5.22-.9.26c-.06-.15-.15-.3-.26-.44-.1-.15-.25-.27-.44-.36-.19-.1-.43-.14-.72-.14-.4 0-.73.1-1 .28-.27.18-.4.4-.4.69 0 .25.1.45.27.6.19.14.47.26.86.35l.97.24c.58.15 1.02.36 1.3.66.3.29.44.66.44 1.12 0 .37-.11.7-.33 1-.21.3-.5.53-.9.7-.38.17-.82.26-1.33.26-.67 0-1.22-.15-1.66-.44a1.93 1.93 0 0 1-.83-1.27l.96-.24c.09.36.26.62.51.8.26.17.6.26 1 .26.47 0 .84-.1 1.12-.3.28-.2.42-.44.42-.72a.76.76 0 0 0-.24-.57c-.16-.16-.4-.28-.73-.35l-1.1-.26a2.6 2.6 0 0 1-1.32-.66 1.6 1.6 0 0 1-.41-1.13c0-.37.1-.7.3-.98.22-.28.5-.5.86-.67a3 3 0 0 1 1.24-.24c.65 0 1.16.14 1.53.43.37.28.63.65.79 1.12Zm6.27 0-.9.26c-.06-.15-.15-.3-.26-.44-.1-.15-.25-.27-.44-.36a1.6 1.6 0 0 0-.72-.14c-.4 0-.74.1-1 .28-.27.18-.4.4-.4.69 0 .25.1.45.27.6.19.14.47.26.86.35l.97.24c.58.15 1.02.36 1.3.66.3.29.44.66.44 1.12 0 .37-.11.7-.33 1-.21.3-.5.53-.9.7-.38.17-.82.26-1.33.26-.67 0-1.22-.15-1.66-.44a1.93 1.93 0 0 1-.83-1.27l.96-.24c.09.36.26.62.51.8.26.17.6.26 1 .26.47 0 .84-.1 1.12-.3.28-.2.42-.44.42-.72a.76.76 0 0 0-.24-.57c-.16-.16-.4-.28-.73-.35l-1.1-.26a2.6 2.6 0 0 1-1.32-.66 1.6 1.6 0 0 1-.41-1.13c0-.37.1-.7.3-.98.22-.28.5-.5.86-.67a3 3 0 0 1 1.24-.24c.65 0 1.16.14 1.52.43.38.28.64.65.8 1.12Zm3.56 5.23c-.42 0-.8-.07-1.13-.23-.34-.16-.6-.39-.8-.69-.2-.3-.3-.66-.3-1.09 0-.37.07-.68.22-.91.14-.24.34-.42.59-.55.24-.14.52-.24.82-.3a14.76 14.76 0 0 1 1.87-.28c.25-.03.43-.07.55-.14.11-.07.17-.18.17-.34v-.03c0-.43-.11-.75-.34-.98-.23-.24-.58-.35-1.04-.35-.48 0-.86.1-1.13.31-.27.21-.46.44-.57.67l-.96-.34a2.3 2.3 0 0 1 1.62-1.4 3.9 3.9 0 0 1 1.73-.05c.28.04.54.15.8.3s.47.38.64.7c.17.3.26.72.26 1.24V14h-1v-.89h-.06a1.91 1.91 0 0 1-.98.87 2.3 2.3 0 0 1-.96.17Zm.15-.9a2 2 0 0 0 1-.23 1.6 1.6 0 0 0 .84-1.39v-.92c-.04.05-.14.1-.28.14a4.77 4.77 0 0 1-1.04.18l-.42.06c-.26.03-.5.08-.73.16-.22.08-.4.19-.55.34a.86.86 0 0 0-.2.6c0 .35.13.62.39.8.26.17.59.26.99.26Zm7.32 3.34c-.48 0-.9-.06-1.25-.19a2.66 2.66 0 0 1-1.42-1.12l.8-.56.34.4c.14.16.33.3.58.41.24.12.56.17.95.17.53 0 .97-.12 1.31-.38.35-.25.52-.66.52-1.2v-1.33h-.09c-.07.12-.18.27-.31.44-.14.18-.33.33-.58.47-.25.13-.59.2-1.02.2a2.63 2.63 0 0 1-2.42-1.47 3.82 3.82 0 0 1-.35-1.74 4 4 0 0 1 .35-1.75 2.6 2.6 0 0 1 2.44-1.57c.43 0 .77.07 1.02.21.25.14.44.3.57.48l.32.43h.1V7.45h.97v6.74c0 .56-.12 1.02-.38 1.37-.25.35-.6.61-1.02.78-.43.17-.9.25-1.43.25ZM88.7 13c.4 0 .74-.09 1.02-.27.28-.19.5-.45.64-.8.14-.35.22-.76.22-1.24s-.08-.9-.22-1.25a1.87 1.87 0 0 0-.63-.85 1.7 1.7 0 0 0-1.03-.3A1.71 1.71 0 0 0 87 9.46c-.14.36-.2.76-.2 1.2 0 .46.06.86.2 1.21.15.35.36.62.64.82.29.2.64.3 1.06.3Zm7.45 1.15a2.8 2.8 0 0 1-2.68-1.6c-.25-.5-.37-1.1-.37-1.76 0-.67.12-1.26.36-1.77a2.77 2.77 0 0 1 2.58-1.64c.35 0 .68.06 1.02.17a2.5 2.5 0 0 1 1.56 1.56c.16.42.24.93.24 1.54v.43H93.8v-.87h4.03c0-.37-.08-.7-.22-.99a1.67 1.67 0 0 0-1.57-.94 1.85 1.85 0 0 0-1.71 1.07c-.16.31-.24.65-.24 1.01v.58c0 .5.09.92.26 1.26.17.34.41.6.72.78.3.17.66.26 1.07.26.26 0 .5-.03.72-.1a1.55 1.55 0 0 0 .92-.91l.97.26c-.1.33-.28.62-.52.87s-.54.44-.9.58c-.35.14-.75.2-1.2.2Z" fill="#0F67F5"/></svg>
